!!!OTL: Pulianche
!!!ARE: Asia, China,ˇHebei, Yutian
!! IV, 89
!!!SCT: C1646
!!!YEM: Copyright 1995, estate of Helmut Schaffrath.
**kern
*ICvox
*Ivox
*M2/4
*k[f#c#]
*D:
{8a
8a
4dd
=1
8dd
16ee
16dd
8b
8a
=2
16f#
16a
16b
16dd
16f#
16a
8f#
=3
4e
4d}
=4
{16b
16a
16f#
16a
4dd
=5
8dd
16ee
16dd
8ee
16b
16a
=6
16f#
16a
16b
16dd
8a
16a
16f#
=7
4e
4d}
=8
{8a
8a
4dd
=9
8ee
8b
16.a
32b
16a
16b
=10
8ee
8dd
16b
16a
8a
=11
8.e
16f#
8e
8f#}
=12
{8a
8a
8dd
16ee
16dd
=13
16b
16dd
16b
16a
8a
16b
16dd
=14
16f#
16a
8f#
4e
=15
2d}
=16
{8a
8a
4dd
=17
8ee
8b
16.a
32b
16a
16b
=18
8ee
8dd
16b
16a
8a
=19
8.e
16f#
8e
8f#}
=20
{8a
16a
16a
8dd
16ee
16dd
=21
8b
8a
8.b
16a
=22
16b
16a
16b
16a
16dd
8.dd}
=23
{16b
16dd
16b
16a
4a
=24
16g
16a
16b
16dd
4a}
=25
{2a
=26
8ee
16f#
16f#
8e
8f#
=27
8a
16b
16a
4a}
=28
{16b
16dd
16b
16a
8b
16a
16b
=29
8.dd
16ee
4dd}
=30
{16b
16dd
16b
16a
8b
16a
16f#
=31
8a
16b
16a
4a}
=32
{8.a
16b
8dd
8dd
=33
8ee
8f#
8f#
16f#
16e
=34
8.d
16e
8d
8e
=35
2d}
=36
{8g
4e
8g
=37
8a
8b
4a
=38
8g
4e
8g
=39
8a
8b
4a}
=40
{2a
=41
8a
4a
8g
=42
8dd
8f#
8a
8f#
=43
8.f#
16e
8d
8d}
=44
{8e
16e
16d
8B
8e
=45
8.d
16B
4A}
==
!!!AGN: Xiaodiao. NannÅ qing
!!!AMT: simple duple
!!!AIN: vox
!!!EED: Helmut Schaffrath
!!!EEV: 1.0
*-
